-----BEGIN PGP SIGNATURE-----

iQIzBAABCAAdFiEESx/A2d+SMhztn2FdvsVV4ioUNVMFAmpo7sMACgkQvsVV4ioU
NVOQyhAAsx6xeijTn55N3e4Zhy0igfRXBfCdiwhuao6yD+mhzX8mNGyX/XKy7MHo
cHhV3HAKZuO2bqGvyGyAWOCGbdUa+qqZixMiXVexyZbv+1cQ1mItK2ogRMk3pFrv
umeDUSzG1GPDK4bj5FhJ4bXkWNet2IgN8EsfGMav6kDk+jZ4UAAs+3A8T9x30p8t
LjJJKsiUzfZ+I5sFQSpbbvJXc69SEthwAWbtiRcdCW5Y/jpK9w7hJ2M/vC/nIxh7
qRdpVqfLmgGZN5FmCum7VmuK6YZfMXm0wxmYKrBg9Evb59II1v1M5n+qlYBAkHTr
TokIDNNGWkLTZmCUvEmVoC7vtj0vqBNfWl5djBz7Vyikm5dltC2ecH63BCb8bVlv
2pc0ubw7VVExmf3ZJYXavaalrIca2zZeJO4bneVZ8tXaLieBoZZ5+GeAXpM2euO+
n0RHxB2TqHt8WwN0kkT8RLc+THnIMrDAZ34SOUqA6hs44exqmn9Ji2W0iy/nsurp
zkdkt9BKdEm160dqJXl9JEoadXQFi9IfmRrz5TL59NLuOH6DHP4cOZ6S80P7pksd
8anZmbSaTkP9gGUImqgMziD6bjwdBWx/RD7jezbDmTFZKl95VuEEotRaws87jyHH
qTyX9xqRJyak72wFAPKMhVn8H4peCsxbCvWGrfHfQRGls/PPCjA=
=lz/q
-----END PGP SIGNATURE-----
